X: 69
M: 4/4
L: 1/8
K: G
[d2D2]ef gafe | d2[B2D2] [g2B2]z2 | [d2D2]ef gfga | b2a2 e2z2 |
d2ef gafe | d2B2 [g2B2]e2 | d2c2 ((3BcB) AG | FFAF [B2G2]z2 ||
e2d2 egfe | d2c2 ((3BcB)A2 | D2"c."FA AFAc | BAFA G2z2 |]
P: Var:
"a."[BD]GAG || "b."[BD]GBc || "c."AA |] y8 y8 y8 y8


